src/icons/solid/symbols/settings.svg

<svg width="24" height="24" viewBox="0 0 24 24" fill="none" xmlns="http://www.w3.org/2000/svg">
<g clip-path="url(#clip0_4704_662)">
<path d="M20.5784 12.9146C20.6517 12.3049 20.6517 11.6851 20.5784 11.0854L22.4952 9.56611C23.0189 9.12631 23.1551 8.40663 22.8094 7.8269L21.165 5.1881C20.8193 4.59836 20.0756 4.34848 19.4262 4.57837L17.1114 5.36801C16.5877 4.99818 16.0221 4.68832 15.4356 4.44843L14.9956 2.12949C14.8699 1.47978 14.2729 1 13.5816 1H10.3765C9.68519 1 9.08816 1.47978 8.96247 2.12949L8.52255 4.44843C7.92551 4.68832 7.37038 4.99818 6.84667 5.36801L4.53186 4.57837C3.87198 4.33848 3.13878 4.59836 2.79313 5.1881L1.19057 7.8269C0.844921 8.40663 0.981089 9.12631 1.5048 9.56611L3.42159 11.0854C3.34827 11.6951 3.34827 12.3049 3.42159 12.9146L1.5048 14.4339C0.981089 14.8637 0.844921 15.5934 1.19057 16.1731L2.79313 18.8119C3.13878 19.3916 3.87198 19.6415 4.53186 19.4216L6.84667 18.632C7.37038 18.9918 7.92551 19.3017 8.52255 19.5516L8.96247 21.8705C9.08816 22.5202 9.68519 22.99 10.3765 23H13.5816C14.2729 23 14.8699 22.5202 14.9956 21.8705L15.4356 19.5516C16.0221 19.3017 16.5877 18.9918 17.1114 18.632L19.4262 19.4216C20.0756 19.6515 20.8193 19.3916 21.165 18.8119L22.7675 16.1731C23.1132 15.5934 22.977 14.8637 22.4533 14.4339L20.5679 12.9146H20.5784ZM12.0105 14.7537C10.4289 14.7537 9.13006 13.5143 9.13006 12.005C9.13006 10.4957 10.4289 9.25625 12.0105 9.25625C13.5921 9.25625 14.8909 10.4757 14.8909 12.005C14.8909 13.5343 13.6026 14.7537 12.0105 14.7537Z" fill="#3C3B44"/>
</g>
<defs>
<clipPath id="clip0_4704_662">
<rect width="24" height="24" fill="white"/>
</clipPath>
</defs>
</svg>

<svg xmlns="http://www.w3.org/2000/svg" width="24" height="24" fill="none" viewBox="0 0 24 24"><g clip-path="url(#a)"><path fill="currentColor" d="M20.578 12.915a7.6 7.6 0 0 0 0-1.83l1.917-1.519c.524-.44.66-1.16.314-1.74l-1.644-2.638c-.346-.59-1.09-.84-1.739-.61l-2.315.79a8.5 8.5 0 0 0-1.675-.92l-.44-2.319C14.87 1.48 14.273 1 13.582 1h-3.206c-.69 0-1.288.48-1.414 1.13l-.44 2.318c-.596.24-1.152.55-1.675.92l-2.315-.79c-.66-.24-1.393.02-1.739.61L1.191 7.827c-.346.58-.21 1.3.314 1.74l1.917 1.518a7.6 7.6 0 0 0 0 1.83l-1.917 1.519c-.524.43-.66 1.16-.314 1.74l1.602 2.638c.346.58 1.079.83 1.739.61l2.315-.79c.523.36 1.079.67 1.676.92l.44 2.319c.125.65.722 1.119 1.414 1.129h3.205c.69 0 1.288-.48 1.414-1.13l.44-2.318a9.7 9.7 0 0 0 1.675-.92l2.315.79c.65.23 1.393-.03 1.739-.61l1.602-2.639c.346-.58.21-1.31-.314-1.74l-1.885-1.518zm-8.567 1.839c-1.582 0-2.88-1.24-2.88-2.749s1.298-2.749 2.88-2.749 2.88 1.22 2.88 2.749-1.288 2.749-2.88 2.749"/></g><defs><clipPath id="a"><path fill="currentColor" d="M0 0h24v24H0z"/></clipPath></defs></svg>
